X:1
T: Duncan Davidson
C:
R:Strathspey
Q: 128
K:E
M:4/4
L:1/16
|:E3G B2c2 B2G2 B3c|E4 e3c B2G2 F3G|E3G B3c BG3 B2a2|g3a f3g e2e2 e4|
E3G B2c2 B2G2 B3c|E4 e3c B2G2 F3G|E3G B3c BG3 B2a2|g3a f3g e2e2 e4|
g3f efga b2g2 f2e2|d2B2 f2B2 g2B2 f2B2|g3f efga b2g2 f2e2|c3a g2f2 e2e2 e4|
g3f efga b2g2 f2e2|d2B2 f2B2 g2B2 f2B2|g3f efga b2g2 f2e2|c3a g2f2 e2e2 e4:|
